X:1
T:I’ll Never Forget It
T:I’ll Never Forget It
T:Frank Monford Graham
T:I. A. Manley, 1914
T:Public Domain Courtesy of the Cyber Hymnal™
T:Public Domain Courtesy of the Cyber Hymnal™
C:Frank Monford Graham
Z:Public Domain
Z:Courtesy of the Cyber Hymnal™
%%score 1 ( 2 3 )
L:1/8
Q:1/4=98
M:3/4
K:G
V:1 treble 
V:2 bass 
V:3 bass 
V:1
 [DG]2 [DG][DG] [DG][FA] | [GB][GB] [GB]2 [FA]2 | [FA][FA] [FA][DG] [GB][DA] | [DG]4 z2 | %4
w: 1.~It was a time of|sweet- est peace, When|Je- sus came to my re-|lease;|
w: 2.~Though light- nings flash and|thun- ders roll, This|peace a- bides with- in my|soul;|
w: 3.~Though clouds may dark and|hea- vy be, But|still by faith my Lord I|see;|
w: 4.~Then let me lean on|Je- sus’ breast, A-|mid the tem- pest let me|rest;|
 [DG]2 [DG][DG] [DG][DG] | [GB][Gd] [Gd]2 [Ge]2 | [Ge][Ge] [Gd][DG] [GB][DA] | [DG]4 z2 || %8
w: Saved me from sin and|dark des- pair, And|wrote my name on pag- es|fair.|
w: And though the world re-|jects me still His|per- fect love my heart doth|fill.|
w: Through sor- rows deep or|swell- ing flood I|rest se- cure be- neath the|blood.|
w: While cling- ing to His|pre- cious arm, He’ll|shield my soul from ev- ery|harm.|
"^Refrain" [Gd]3 [Gd] [Ge][Gd] | [GB]3 [DG]3 | [EG]3 ([EG] [DF])[CE] | ([B,D]3 [DG]3) | %12
w: ||||
w: ||||
w: ||||
w: ||||
 [EG]3 [EG] [EG][EA] | [^DB]3 [DB]3 | [EA]3 [EA] [EB][E^c] | [Dd]3- [Dd]2 z | [Gd]3 [Gd] [Ge][Gd] | %17
w: |||||
w: |||||
w: |||||
w: |||||
 [GB]3 [DG]3 | [EG]3 [EG] [DF][B,E] | ([B,D]3 [DG]3) | [DG]3 [DG] [FA][GB] | [Gd]3 [Gd]3 | %22
w: |||||
w: |||||
w: |||||
w: |||||
 [Fd]3 [Fc] [GB][DA] | [DG]6 |] %24
w: ||
w: ||
w: ||
w: ||
V:2
 [G,B,]2 [G,B,][G,B,] [G,B,][G,C] | [G,D][G,D] [G,D]2 [D,D]2 | [D,D][D,D] [D,D][D,B,] [D,D][D,C] | %3
w: |||
 [G,B,]4 z2 | [G,B,]2 [G,B,][G,B,] [G,B,][G,B,] | [G,D][G,B,] [G,B,]2 [C,C]2 | %6
w: |||
 [C,C][C,C] [G,B,][G,B,] [D,D][D,C] | [G,B,]4 z2 || [G,B,]3 [G,B,] [G,C][G,B,] | [G,D]3 [G,B,]3 | %10
w: ||I’ll ne- ver for-|get it|
 [C,C]3 [C,C]2 [C,G,] | (G,3 B,3) | [E,B,]3 [E,B,] [E,G,][C,G,] | [B,,F,]3 [B,,F,]3 | %14
w: while ag- es|roll; *|I’ll ne- ver for-|get it,|
 [A,,G,]3 [A,,G,] [A,,G,][A,,G,] | [D,F,]3- [D,F,]2 z | [G,B,]3 [G,B,] [G,C][G,B,] | %17
w: sweet peace in my|soul; *|When Je- sus my|
 [G,D]3 [G,B,]3 | [C,C]3 [C,C] [C,C][C,G,] | (G,3 B,3) | [G,B,]3 [G,B,] [G,C][G,D] | %21
w: Sav- ior|in quick- en- ing|power; *|Brought life and sal-|
 [G,B,]3 [G,B,]3 | [D,C]3 [D,D] [D,D][D,C] | [G,B,]6 |] %24
w: va- tion,|and saved me that|hour.|
V:3
 x6 | x6 | x6 | x6 | x6 | x6 | x6 | x6 || x6 | x6 | x6 | G,,6 | x6 | x6 | x6 | x6 | x6 | x6 | x6 | %19
 G,,6 | x6 | x6 | x6 | x6 |] %24

